server/src/public/file.svg

<?xml version="1.0" encoding="iso-8859-1"?>
<!-- Generator: Adobe Illustrator 19.0.0, SVG Export Plug-In . SVG Version: 6.00 Build 0)  -->
<svg version="1.1" id="Capa_1" xmlns="http://www.w3.org/2000/svg" xmlns:xlink="http://www.w3.org/1999/xlink" x="0px" y="0px"
	 viewBox="0 0 490 490" style="enable-background:new 0 0 490 490;" xml:space="preserve">
<g>
	<g>
		<path d="M320.45,0H64.95v490h360.1V112L320.45,0z M254.35,428.2h-124.4c-5.4,0-10.1-4.3-10.1-10.1c0-5.4,4.3-10.1,10.1-10.1h124.4
			c5.4,0,10.1,4.3,10.1,10.1C264.45,423.5,260.25,428.2,254.35,428.2z M360.15,364.4h-230.2c-5.4,0-10.1-4.3-10.1-10.1
			c0-5.4,4.3-10.1,10.1-10.1h230.2c5.4,0,10.1,4.3,10.1,10.1C370.25,360.1,365.65,364.4,360.15,364.4z M360.15,301h-230.2
			c-5.4,0-10.1-4.3-10.1-10.1c0-5.4,4.3-10.1,10.1-10.1h230.2c5.4,0,10.1,4.3,10.1,10.1C370.25,296.7,365.65,301,360.15,301z
			 M360.15,237.6h-230.2c-5.4,0-10.1-4.3-10.1-10.1s4.3-10.1,10.1-10.1h230.2c5.4,0,10.1,4.3,10.1,10.1S365.65,237.6,360.15,237.6z
			 M360.15,173.8h-230.2c-5.4,0-10.1-4.3-10.1-10.1c0-5.4,4.3-10.1,10.1-10.1h230.2c5.4,0,10.1,4.3,10.1,10.1
			C370.25,169.6,365.65,173.8,360.15,173.8z M300.25,131.8v-112l104.6,112H300.25z"/>
	</g>
</g>
<g>
</g>
<g>
</g>
<g>
</g>
<g>
</g>
<g>
</g>
<g>
</g>
<g>
</g>
<g>
</g>
<g>
</g>
<g>
</g>
<g>
</g>
<g>
</g>
<g>
</g>
<g>
</g>
<g>
</g>
</svg>

<?xml version="1.0" encoding="UTF-8" standalone="no"?>
<svg
   xmlns:dc="http://purl.org/dc/elements/1.1/"
   xmlns:cc="http://creativecommons.org/ns#"
   xmlns:rdf="http://www.w3.org/1999/02/22-rdf-syntax-ns#"
   xmlns:svg="http://www.w3.org/2000/svg"
   xmlns="http://www.w3.org/2000/svg"
   xmlns:sodipodi="http://sodipodi.sourceforge.net/DTD/sodipodi-0.dtd"
   xmlns:inkscape="http://www.inkscape.org/namespaces/inkscape"
   inkscape:version="1.0 (4035a4fb49, 2020-05-01)"
   height="574.45001"
   width="360.10001"
   sodipodi:docname="file.svg"
   xml:space="preserve"
   viewBox="0 0 360.1 574.45001"
   y="0px"
   x="0px"
   id="Capa_1"
   version="1.1"><metadata
   id="metadata43"><rdf:RDF><cc:Work
       rdf:about=""><dc:format>image/svg+xml</dc:format><dc:type
         rdf:resource="http://purl.org/dc/dcmitype/StillImage" /><dc:title></dc:title></cc:Work></rdf:RDF></metadata><defs
   id="defs41" /><sodipodi:namedview
   inkscape:current-layer="Capa_1"
   inkscape:window-maximized="1"
   inkscape:window-y="0"
   inkscape:window-x="1920"
   inkscape:cy="327.63543"
   inkscape:cx="445.66487"
   inkscape:zoom="0.91530612"
   showgrid="false"
   id="namedview39"
   inkscape:window-height="1051"
   inkscape:window-width="1920"
   inkscape:pageshadow="2"
   inkscape:pageopacity="0"
   guidetolerance="10"
   gridtolerance="10"
   objecttolerance="10"
   borderopacity="1"
   bordercolor="#666666"
   pagecolor="#ffffff" />
<g
   transform="translate(-64.95)"
   id="g6">
	<g
   id="g4">
		<path
   id="path2"
   d="M 320.45,0 H 64.95 v 490 h 360.1 V 112 Z m -66.1,428.2 h -124.4 c -5.4,0 -10.1,-4.3 -10.1,-10.1 0,-5.4 4.3,-10.1 10.1,-10.1 h 124.4 c 5.4,0 10.1,4.3 10.1,10.1 0,5.4 -4.2,10.1 -10.1,10.1 z m 105.8,-63.8 h -230.2 c -5.4,0 -10.1,-4.3 -10.1,-10.1 0,-5.4 4.3,-10.1 10.1,-10.1 h 230.2 c 5.4,0 10.1,4.3 10.1,10.1 0,5.8 -4.6,10.1 -10.1,10.1 z m 0,-63.4 h -230.2 c -5.4,0 -10.1,-4.3 -10.1,-10.1 0,-5.4 4.3,-10.1 10.1,-10.1 h 230.2 c 5.4,0 10.1,4.3 10.1,10.1 0,5.8 -4.6,10.1 -10.1,10.1 z m 0,-63.4 h -230.2 c -5.4,0 -10.1,-4.3 -10.1,-10.1 0,-5.8 4.3,-10.1 10.1,-10.1 h 230.2 c 5.4,0 10.1,4.3 10.1,10.1 0,5.8 -4.6,10.1 -10.1,10.1 z m 0,-63.8 h -230.2 c -5.4,0 -10.1,-4.3 -10.1,-10.1 0,-5.4 4.3,-10.1 10.1,-10.1 h 230.2 c 5.4,0 10.1,4.3 10.1,10.1 0,5.9 -4.6,10.1 -10.1,10.1 z m -59.9,-42 v -112 l 104.6,112 z" />
	</g>
</g>
<g
   transform="translate(-64.95)"
   id="g8">
</g>
<g
   transform="translate(-64.95)"
   id="g10">
</g>
<g
   transform="translate(-64.95)"
   id="g12">
</g>
<g
   transform="translate(-64.95)"
   id="g14">
</g>
<g
   transform="translate(-64.95)"
   id="g16">
</g>
<g
   transform="translate(-64.95)"
   id="g18">
</g>
<g
   transform="translate(-64.95)"
   id="g20">
</g>
<g
   transform="translate(-64.95)"
   id="g22">
</g>
<g
   transform="translate(-64.95)"
   id="g24">
</g>
<g
   transform="translate(-64.95)"
   id="g26">
</g>
<g
   transform="translate(-64.95)"
   id="g28">
</g>
<g
   transform="translate(-64.95)"
   id="g30">
</g>
<g
   transform="translate(-64.95)"
   id="g32">
</g>
<g
   transform="translate(-64.95)"
   id="g34">
</g>
<g
   transform="translate(-64.95)"
   id="g36">
</g>
</svg>
